X:1
T:Brown Robin
M:3/4
L:1/8
K:C
 C|C/2-D/2 E G2G/2-A/2 G|G/2-A/2 c A3 G| z GE G- G2| A3/2 G/2 G3- G/2G/2|\
G-A c2 d3/2 c/2|c/2-d/2 e G2(2E3.99999962500005/5.99999925000009E3.99999962500005/5.99999925000009D3.99999962500005/5.99999925000009 C3.99999962500005/5.99999925000009|\
 GA c2 c3/2- d/2| e3- e/2e/2 d3/2 c/2| c3 ded/2-c/2| c3 d d2| ed/2-c/2 E4|\
 D3/2- C/2 C2||
